assets/End arrow/Flat/end_arrow_flat.svg

<svg width="32" height="32" viewBox="0 0 32 32" fill="none" xmlns="http://www.w3.org/2000/svg">
<path d="M10.6175 18.8007L2.3075 11.2307C1.8975 10.8507 1.8975 10.2007 2.3075 9.82067L10.6175 2.25067C11.2275 1.69067 12.2175 2.13067 12.2175 2.96067V6.59067C12.2175 6.94067 12.5075 7.23067 12.8575 7.23067H28.7175C29.3775 7.23067 29.9075 7.76067 29.9075 8.42067V12.6307C29.9075 13.2907 29.3775 13.8207 28.7175 13.8207H12.8575C12.5075 13.8207 12.2175 14.1107 12.2175 14.4607V18.0907C12.2175 18.9207 11.2275 19.3607 10.6175 18.8007Z" fill="#321B41"/>
<path d="M16.9876 21.7107C16.9876 21.1607 17.4376 20.7107 17.9876 20.7107C18.5376 20.7107 18.9876 21.1507 18.9876 21.7107V28.9107C18.9876 29.3507 18.6976 29.7307 18.2776 29.8607C18.1776 29.8907 18.0776 29.9007 17.9876 29.9007C17.6576 29.9007 17.3476 29.7407 17.1576 29.4507L14.2676 25.0407V28.9007C14.2676 29.4507 13.8176 29.9007 13.2676 29.9007C12.7176 29.9007 12.2676 29.4507 12.2676 28.9007V21.7007C12.2676 21.2607 12.5576 20.8807 12.9776 20.7507C13.3976 20.6307 13.8576 20.7907 14.0976 21.1607L16.9876 25.5707V21.7107Z" fill="#321B41"/>
<path d="M21.3275 20.8107H23.8575C25.2975 20.8107 26.4675 21.9807 26.4675 23.4107V27.3907C26.4675 28.8307 25.2975 30.0007 23.8575 30.0007H21.3275C20.7775 30.0007 20.3275 29.5507 20.3275 29.0007V21.8107C20.3275 21.2607 20.7775 20.8107 21.3275 20.8107ZM23.8675 28.0007C24.1975 28.0007 24.4775 27.7307 24.4775 27.3907V23.4107C24.4775 23.0807 24.2075 22.8007 23.8675 22.8007H22.3375V28.0007H23.8675Z" fill="#321B41"/>
<path d="M9.77752 22.8007C10.3275 22.8007 10.7775 22.3507 10.7775 21.8007C10.7775 21.2507 10.3275 20.8007 9.77752 20.8007H6.45752C5.90752 20.8007 5.45752 21.2507 5.45752 21.8007V29.0007C5.45752 29.5507 5.90752 30.0007 6.45752 30.0007H9.78752C10.3375 30.0007 10.7875 29.5507 10.7875 29.0007C10.7875 28.4507 10.3375 28.0007 9.78752 28.0007H7.44752V26.4007H9.77752C10.3275 26.4007 10.7775 25.9507 10.7775 25.4007C10.7775 24.8507 10.3275 24.4007 9.77752 24.4007H7.44752V22.8007H9.77752Z" fill="#321B41"/>
</svg>

<svg xmlns="http://www.w3.org/2000/svg" width="32" height="32" fill="none"><path fill="#321B41" d="m10.617 18.8-8.31-7.57a.962.962 0 0 1 0-1.41l8.31-7.57c.61-.56 1.6-.12 1.6.71v3.63c0 .35.29.64.64.64h15.86c.66 0 1.19.53 1.19 1.19v4.21c0 .66-.53 1.19-1.19 1.19h-15.86c-.35 0-.64.29-.64.64v3.63c0 .83-.99 1.27-1.6.71ZM16.988 21.71c0-.55.45-1 1-1s1 .44 1 1v7.2a.996.996 0 0 1-1.83.54l-2.89-4.41v3.86c0 .55-.45 1-1 1s-1-.45-1-1v-7.2c0-.44.29-.82.71-.95.42-.12.88.04 1.12.41l2.89 4.41v-3.86ZM21.328 20.81h2.53a2.61 2.61 0 0 1 2.61 2.6v3.98c0 1.44-1.17 2.61-2.61 2.61h-2.53c-.55 0-1-.45-1-1v-7.19c0-.55.45-1 1-1Zm2.54 7.19c.33 0 .61-.27.61-.61v-3.98c0-.33-.27-.61-.61-.61h-1.53V28h1.53ZM9.778 22.8c.55 0 1-.45 1-1s-.45-1-1-1h-3.32c-.55 0-1 .45-1 1V29c0 .55.45 1 1 1h3.33c.55 0 1-.45 1-1s-.45-1-1-1h-2.34v-1.6h2.33c.55 0 1-.45 1-1s-.45-1-1-1h-2.33v-1.6h2.33Z"/></svg>
